X:573
%%etbk:tnset id:305,pos:2,rep:3x,ant:
%%etbk:pldat 2016-09-16T15:52,2016-09-10T16:26,2016-09-04T14:30,2016-07-07T16:15,2016-06-21T17:09,2016-06-14T17:05,2015-11-25T17:31,2015-10-12T18:26,2015-09-07T19:10,2015-08-09T16:35,2015-07-31T18:29,2015-07-25T13:55,2015-07-22T16:29,2015-04-23T18:34,2015-04-11T14:53,2015-02-21T17:29,2015-02-19T19:38,2015-02-16T19:04,2015-02-14T15:01,2015-02-12T19:34,2015-02-03T16:46,2015-01-29T18:02,2015-01-28T16:08,2015-01-27T15:43,2015-01-25T15:58,2015-01-21T17:34,2015-01-13T16:44,2015-01-10T15:15,2015-01-07T16:39,2015-01-06T18:12,2014-12-26T11:51,2014-12-18T18:52,2014-12-13T16:13,2014-12-10T15:46,2014-12-04T18:19,2014-12-01T19:08,2014-11-30T15:11,2014-11-26T16:54,2014-11-24T15:32,2014-11-22T16:50,2014-11-18T15:31,2014-11-17T18:08,2014-11-15T15:51,2014-11-13T18:08,2014-10-16T18:11,2014-10-15T18:52,2014-10-05T16:37,2014-09-04T18:07,2014-09-03T19:19,2014-09-03T18:17,2014-09-02T18:15,2014-09-01T18:14,2014-08-31T12:09,2014-08-28T18:11,2014-08-27T18:16,2014-08-26T15:39,2014-08-25T19:14,2014-08-24T11:13,2014-08-19T19:10,2014-08-06T18:18,2014-08-03T14:34,2014-07-31T18:42,2014-07-27T16:51,2014-07-26T14:48,2014-07-25T18:56,2014-07-22T19:22,2014-07-20T11:34,2014-07-18T10:32,2014-07-16T17:29,2014-07-14T17:32,2014-07-13T14:08,2014-07-05T13:43,2014-07-04T11:34,2014-07-03T09:53,2014-07-02T10:08,2014-06-30T10:40,2014-06-25T16:30,2014-06-22T16:57,2014-06-20T16:39,2014-06-15T12:51,2014-06-11T17:25,2014-06-03T17:21,2014-06-02T19:28,2014-05-21T19:38,2014-05-17T20:09,2014-05-14T17:45,2014-05-13T17:56,2014-05-09T19:36,2014-05-08T17:56,2014-05-06T17:43,2014-05-05T19:13,2014-05-02T18:13,2014-05-01T18:01,2014-04-30T15:18,2014-04-28T18:12,2014-04-27T17:12,2014-04-27T12:31,2014-04-26T16:06,2014-04-12T15:55,2014-04-11T19:13,2014-04-08T18:33,2014-04-07T18:46,2014-04-06T15:34,2014-04-03T20:04,2014-04-02T16:49,2014-04-01T16:07,2014-03-31T18:27,2014-03-30T16:55
T: Julia Delaney's
Z: Piano Box Version by Martin Fleischmann
H: Created 2014-03-30 /  Last Modified 2014-04-03
R: reel
M: 4/4
L: 1/8
K: Ddor
|: !5!dcA!2!G !1!D!2!~F3 | !1!D !2!~E3 !1!D!2!~F3 | !5!dcA!2!G !1!F!3!A!1!D!2!F| !3!A!5!dd^c defe |
!5!dcA!2!G !1!DFFD | !2!EEE!1!D !2!FF!1!FA | | !5!dcA!2!G !1!F!3!A!1!D!2!F|1 !3!A!5!dd^c  ~d3z:|2 !3!A!5!dd^c  ~d3 e||
|: !3!f2de fagf | !2!ecgc acge| !3!fede fagf| !2!e!1!d!2!^c!4!e !3!d3!4!e|
!5!f!1!A!3!d!4!e !3!fagf | !2!ecgc acge | fede fedc|1 !3!A!5!dd^c  ~d3 e :|2 !3!A!5!dd^c ~d3z|


